!!!!SEGMENT: pl-wtm--r-1326_stefani-jozef--polka.krn
!!!cenid: 18xx:1836
!!!COM: Stefani, Józef
!!!COM-rismid: pe30024097
!!!CDT: 1800/04/16-1876/03/19
!!!CNT: Polish
!!!OTL: Polka
!!!PDT:
!!!AGN: Secular; Polka
!!!SMS-siglum: PL-Wtm
!!!SMS-shelfmark: R 1326
!!!SMS-shelfwork: W
!!!SMS-variant:
!!!SMS-altvar:
!!!NIFC-rismid: 1001119000
!!!URL-scan: http://repozytorium.nifc.pl/skany/pl-wtm-nut--r1326
!!!ONB-nifc: UWAGA: Maestoso + Polka razem
!!!OMD: Maestoso
**kern	**fing	**kern	**fing	**dynam
*part1	*part1	*part1	*part1	*part1
*staff2	*staff2	*staff1	*staff1	*
*I"Fortepian	*	*I"Fortepian	*	*
*>[A,B,B,C,C,D,D,E,E,B,C]	*>[A,B,B,C,C,D,D,E,E,B,C]	*>[A,B,B,C,C,D,D,E,E,B,C]	*>[A,B,B,C,C,D,D,E,E,B,C]	*>[A,B,B,C,C,D,D,E,E,B,C]
*>A	*>A	*>A	*>A	*>A
*clefG2	*	*clefG2	*	*
*k[]	*	*k[]	*	*
*F:	*	*F:	*	*
*M3/4	*	*M3/4	*	*
=1	=1	=1	=1	=1
!	!	!	!	!LO:DY:rj
8e/	1	8ggg 8gg#\	2 5	f
8r	.	8r	.	.
(16e/LL	.	4.bb 4.gg# 4.ee^<\	1 2 4	.
16d#X/	.	.	.	.
16e/	.	.	.	.
16d#/JJ	.	.	.	.
8e/)	.	.	.	.
8r	.	8r	.	.
=2	=2	=2	=2	=2
8A/	5	8ccc 8aa 8ee\	1 3 5	.
8r	.	8r	.	.
(16a/LL	1	4.aa 4.ee 4.cc^<\	1 2 5	.
16g#X/	.	.	.	.
16a/	.	.	.	.
16g#/JJ	.	.	.	.
8a/)	.	.	.	.
8r	.	8r	.	.
=3	=3	=3	=3	=3
8d/	.	8ddd 8ff#X\	2 5	.
8r	.	8r	.	.
(16d/LL	1.	4.aa 4.ff# 4.dd^<\	1 2 4	.
16c#X/	.	.	.	.
16d/	.	.	.	.
16c#/JJ	.	.	.	.
8d/)	.	.	.	.
8r	.	8r	.	.
!!LO:LB:g=original
=4	=4	=4	=4	=4
8G/	5	8bb 8gg 8dd\	1 3 5	.
8r	.	8r	.	.
(16g/LL	1	4.gg 4.dd 4.b^<\	1 3 5	.
16f#X/	.	.	.	.
16g/	.	.	.	.
16f#/JJ	.	.	.	.
8g/)	.	.	.	.
8r	.	8r	.	.
=5	=5	=5	=5	=5
!	!	!	!	!LO:DY:rj
8G/L	5	8g'/L	1	p
8f#X/	2	8a'/	.	<
8fn/	1	8b'/	.	.
8e/	.	8cc'/	1	.
8d/	.	8dd'/	.	.
8c/J	.	8ee'/J	.	.
=6	=6	=6	=6	=6
8B/	.	8ff\	.	[
8r	.	8r	.	.
8c/	.	8ee\	.	.
8r	.	8r	.	.
4f#X/	2	4aa 4ee-X 4cc\	1 2 5	sf
=7	=7	=7	=7	=7
4g/	1	4gg 4een 4cc\	1 3 5	sf
4r	.	4r	.	.
4r	.	4r	.	.
!!LO:LB:g=original
=8	=8	=8	=8	=8
4g/	.	4gg 4dd 4b\	.	sf
4r	.	4r	.	.
!LO:TX:a:i:t=Attaca La Polka	!	!	!	!
4r;	.	4r;	.	.
!!LO:PB:g=original
=9||	=9||	=9||	=9||	=9||
*>B	*>B	*>B	*>B	*>B
*M2/4	*	*M2/4	*	*
*^	*^	*	*	*
*	*2\right	*	*	*	*	*
!	!	!	!	!LO:TX:a:i:t=Polka	!	!LO:DY:rj
(16g/LL	2c\	1	5	(16ee\LL	4	p
16f#X/	.	.	.	16dd#X\	.	.
16g/	.	.	.	16ee\	.	.
16f#/JJ	.	.	.	16dd#\JJ)	.	.
8g/L)	.	.	.	8ee\L	.	.
8e'/J	.	.	.	8cc'\J	.	.
*	*	*v	*v	*	*	*
*v	*v	*	*	*	*
=10	=10	=10	=10	=10
.	.	(8qee/	.	.
8B/L	5	8dd\L)	.	.
8fJ 8d/	1 3	8g'\J	.	.
.	.	(8qaa/	5	.
8c/L	5	8gg\L)	4	.
8gJ 8e/	1 3	8ee'\J	.	.
=11	=11	=11	=11	=11
8c/L	.	(16ee\LL	4	.
.	.	16dd#X\	.	.
8a/J	1	16ee\	.	.
.	.	16dd#\JJ)	.	.
8g/L	2	8ee\L	.	.
8e/J	4	8cc'\J	.	.
=12	=12	=12	=12	=12
.	.	(8qee/	.	.
*^	*	*	*	*
8B/L	4B\	5	8dd\L)	.	.
8f 8d/	.	3 1	8g'\	.	.
8eJ 8c/	4ryy	4 2	8cc'\J	.	.
8r	.	.	8r	.	.
*v	*v	*	*	*	*
!!LO:LB:g=original
=13:|!|:	=13:|!|:	=13:|!|:	=13:|!|:	=13:|!|:
*>C	*>C	*>C	*>C	*>C
!	!	!	!	!LO:DY:rj
16G/LL	5	16ddLL 16b'\	2 4	f
16g/J	1	16ddJ 16b'\	.	.
8e/J	3	8cc#XJ 8a#X'^<\	2 3	.
16G/LL	.	16ddLL 16b'\	.	.
16g/J	.	16ddJ 16b'\	.	.
8g#X/J	2	8eeJ 8b'^<\	2 5	.
=14	=14	=14	=14	=14
16a/LL	1	16cc'\LL	3	.
16a/J	.	16cc'\J	.	.
8f#X/J	3	8dd'^<\J	.	.
16g/LL	2	16b'\LL	.	.
16g/J	.	16b'\J	.	.
8f#J 8d/	5 3	8a'^<\J	1	.
=15	=15	=15	=15	=15
16G/LL	5	16ddLL 16b'\	2 4	.
16g/J	1	16ddJ 16b'\	.	.
8e/J	3	8cc#XJ 8a#X'^<\	2 3	.
16G/LL	.	16ddLL 16b'\	.	.
16g/J	.	16ddJ 16b'\	.	.
8g#X/J	2	8eeJ 8b'^<\	2 5	.
=16	=16	=16	=16	=16
16a/LL	1	16cc'\LL	3	.
16a/J	.	16cc'\J	.	.
!LO:SIC:v:s=8f#	!	!	!	!
8f/J	3	8dd'^<\J	.	.
16g/LL	2	16b'\LL	.	.
16g/J	.	16b'\J	.	.
!LO:SIC:v:n=1:s=8f#	!	!	!	!
8fJ 8d/	5 3	8a'^<\J	.	.
!!LO:LB:g=original
=17	=17	=17	=17	=17
!	!	!	!	!LO:DY:rj
8G/L	5	16ddLL 16b'\	1 3	p
.	.	16eeJ 16cc'\	.	.
8fJ 8d/	2 1	8ffJ 8dd'\	.	.
*rep	*	*	*	*
8G/L	5	16ffLL 16dd'\	1 3	.
.	.	16ggJ 16ee'\	.	.
8fJ 8d/	2 1	8aaJ 8ff'\	.	.
*Xrep	*	*	*	*
=18	=18	=18	=18	=18
8c/L	5	8ggL 8ee\	.	.
8gJ 8e/	3 1	8eeeJ 8gg^<\	1 5	.
*rep	*	*	*	*
8c/L	5	4ccc 4ee^<\	1 5	.
8gJ 8e/	3 1	.	.	.
*Xrep	*	*	*	*
=19	=19	=19	=19	=19
8F#X/L	5	16a'\LL	1	.
.	.	16b'\J	.	<
8e-XJ 8A/	4 1	8cc'\J	.	.
*rep	*	*	*	*
8F#/L	5	16cc'\LL	1	.
.	.	16dd'\J	.	.
8e-XJ 8A/	4 1	8ee-X'\J	.	[[
*Xrep	*	*	*	*
=20	=20	=20	=20	=20
!	!	!	!	!LO:DY:rj
8G/L	5	(16aa\LL	5	f
.	.	16gg\	.	.
8fJ 8B/	4 1	16ff\	.	.
.	.	16dd\JJ)	.	.
8e 8c/	3 1	8cc\	.	.
!	!	!LO:TX:b:i:t=fine	!	!
!	!	!LO:TX:t=P:problem:fermata nad kreską taktową	!	!
8r	.	8r	.	.
!!LO:LB:g=original
*clefF4	*	*	*	*
=21:|!|:	=21:|!|:	=21:|!|:	=21:|!|:	=21:|!|:
*>D	*>D	*>D	*>D	*>D
*k[b-]	*	*k[b-]	*	*
!	!	!LO:TX:t=P:problem:♭ dopisany ołówkiem przy kluczu	!	!
!LO:TX:t=P:problem:♭ dopisany ołówkiem przy kluczu	!	!LO:TX:a:t=Trio	!	!LO:DY:rj
8F\L	.	16ccLL 16a'/	3 5	p
.	.	16ccJ 16a'/	.	.
8cJ 8A\	.	8aJ 8f'/	.	.
.	.	(16qqff/LL	2	.
.	.	16qqgg/JJ	.	.
8F\L	.	8aa\L)	.	.
8cJ 8A\	.	8ccJ 8a'\	3 5	.
=22	=22	=22	=22	=22
8C\L	.	16b-LL 16g'/	2 4	.
.	.	16b-J 16g'/	.	.
8cJ 8B- 8G\	.	8gJ 8e'/	1 2	.
.	.	(16qqee/LL	.	.
.	.	16qqff/JJ	.	.
*rep	*	*	*	*
8C\L	.	8gg\L)	.	.
8cJ 8B- 8G\	.	8b-'\J	2	.
*Xrep	*	*	*	*
=23	=23	=23	=23	=23
8F\L	.	16a'\LL	1	.
.	.	16dd'\J	4	.
8cJ 8A\	.	[8cc\J	1	.
*rep	*	*	*	*
8F\L	.	16cc\LL]	.	.
.	.	16gg'\J	4	.
8cJ 8A\	.	8ff'\J	1	.
*Xrep	*	*	*	*
=24	=24	=24	=24	=24
.	.	(8qaa/	4	.
8C\L	.	16.gg\LL)	.	.
.	.	32ff#X\K	.	.
8cJ 8G 8E\	.	16.gg\	.	.
.	.	32aa\JJk	.	.
8C\L	.	8gg\L	.	.
8cJ 8G 8E\	.	8cccJ 8gg 8ee\	.	sf
!!LO:LB:g=original
=25	=25	=25	=25	=25
8F\L	.	16ddLL 16b-'\	3 5	.
.	.	16ccJ 16a'\	2 4	.
8cJ 8A\	.	8aJ 8f'\	1 2	.
.	.	(16qqff/LL	.	.
.	.	16qqgg/JJ	.	.
*rep	*	*	*	*
8F\L	.	8aa\L)	.	.
8cJ 8A\	.	8ccJ 8a'\	.	.
*Xrep	*	*	*	*
=26	=26	=26	=26	=26
8C\L	.	16ccLL 16a'/	3 5	.
.	.	16b-J 16g'/	2 4	.
8cJ 8B- 8G\	.	8gJ 8e'/	1 2	.
.	.	(16qqee/LL	3	.
.	.	16qqff/JJ	.	.
*rep	*	*	*	*
8C\L	.	8gg\L)	.	.
8cJ 8B- 8G\	.	8b-'\J	2	.
*Xrep	*	*	*	*
=27	=27	=27	=27	=27
*^	*	*	*	*
4rAyy	8F\L	.	16a'\LL	1	.
.	.	.	16dd'\J	4	.
.	8cJ 8A\	.	8cc'\J	1	.
4BBn/	8BBn\L	.	16dd'\LL	.	.
.	.	.	16ee'\J	.	.
.	8A-XJ 8F 8D\	.	8ff'\J	.	.
=28	=28	=28	=28	=28	=28
4C/	8C\L	.	16dd\LL	2	.
.	.	.	16cc\	1	.
.	8B-J 8E\	.	16aa\	5	.
.	.	.	16gg\JJ	.	.
4rcyy	8A 8F\	.	8ff\	.	.
.	8r	.	8r	.	.
!!LO:PB:g=original
=29:|!|:	=29:|!|:	=29:|!|:	=29:|!|:	=29:|!|:	=29:|!|:
*>E	*>E	*>E	*>E	*>E	*>E
!	!	!	!	!	!LO:DY:rj
4D/	8D\L	.	16ff\LL	4	f
.	.	.	16ee\	.	.
.	8AJ 8F\	.	16dd\	.	.
.	.	.	16cc\JJ	.	.
4D/	8D\L	.	16b-/LL	3	.
.	.	.	16a/	.	.
.	8B-J 8G\	.	16g/	.	.
.	.	.	16b-/JJ	.	.
=30	=30	=30	=30	=30	=30
4D/	8D\L	.	16a\LL	1	.
.	.	.	16aa\	5	.
.	8AJ 8F\	.	16ff\	3	.
.	.	.	16dd\JJ	1	.
4C#X/	8C#\L	.	8ee\L	2	.
.	8AJ 8E\	.	8aa\J	3	sf
=31	=31	=31	=31	=31	=31
4Cn/	8Cn\L	.	16ccc\LL	5	.
.	.	.	16bb-X\	.	.
.	8B-J 8E\	.	16aa\	.	.
.	.	.	16gg\JJ	.	.
8AL 8F 8D\	4rCCyy	.	16ff\LL	.	.
.	.	.	16ee\	2	.
8GJ 8D 8BB-\	.	.	16dd\	.	.
.	.	.	16gg\JJ	.	.
!!LO:LB:g=original
=32	=32	=32	=32	=32	=32
4C/	8C\L	.	16ee'\LL	1	.
.	.	.	(16ddd\	.	.
.	8B-J 8G\	.	16ccc\)	.	.
.	.	.	16ee\JJ	.	.
4ryy	8A 8F\	.	8ff\	.	.
.	8r	.	8a/	.	.
=33	=33	=33	=33	=33	=33
!	!	!	!	!	!LO:DY:rj
4D/	8D\L	.	16ff\LL	.	f
.	.	.	16ee\	.	.
.	8AJ 8F\	.	16dd\	.	.
.	.	.	16cc\JJ	.	.
4D/	8D\L	.	16b-/LL	.	.
.	.	.	16a/	.	.
.	8B-J 8G\	.	16g/	.	.
.	.	.	16b-/JJ	.	.
=34	=34	=34	=34	=34	=34
4D/	8D\L	.	16a\LL	.	.
.	.	.	16aa\	.	.
.	8AJ 8F\	.	16ff\	.	.
.	.	.	16dd\JJ	.	.
4C#X/	8C#\L	.	8ee\L	.	.
.	8AJ 8E\	.	8aa\J	.	sf
=35	=35	=35	=35	=35	=35
4Cn/	8Cn\L	.	16ccc\LL	.	.
.	.	.	16bb-X\	.	.
.	8B-J 8E\	.	16aa\	.	.
.	.	.	16gg\JJ	.	.
8AL 8F 8D\	4rEEyy	.	16ff\LL	.	.
.	.	.	16ee\	.	.
8GJ 8D 8BB-\	.	.	16dd\	.	.
.	.	.	16gg\JJ	.	.
!!LO:LB:g=original
=36	=36	=36	=36	=36	=36
4C/	8C\L	.	16ee'\LL	.	.
.	.	.	(16ddd\	.	.
.	8B-J 8E\	.	16ccc\)	.	.
.	.	.	16ee\JJ	.	.
4ryy	8A 8F\	.	8ff\	.	.
.	8r	.	8r	.	.
*v	*v	*	*	*	*
=37	=37	=37	=37	=37
!	!	!	!	!LO:DY:rj
8F\L	.	16ccLL 16a'/	.	p
.	.	16ccJ 16a'/	.	.
8cJ 8A\	.	8aJ 8f'/	.	.
.	.	(16qqff/LL	.	.
.	.	16qqgg/JJ	.	.
*rep	*	*	*	*
8F\L	.	8aa\L)	.	.
8cJ 8A\	.	8ccJ 8a'\	.	.
*Xrep	*	*	*	*
=38	=38	=38	=38	=38
8C\L	.	16b-LL 16g'/	.	.
.	.	16b-J 16g'/	.	.
8cJ 8B- 8G\	.	8gJ 8e'/	.	.
.	.	(16qqee/LL	.	.
.	.	16qqff/JJ	.	.
*rep	*	*	*	*
8C\L	.	8gg\L)	.	.
8cJ 8B- 8G\	.	8b-'\J	.	.
*Xrep	*	*	*	*
=39	=39	=39	=39	=39
8F\L	.	16a'\LL	.	.
.	.	16dd'\J	.	.
8cJ 8A\	.	[8cc\J	.	.
*rep	*	*	*	*
8F\L	.	16cc\LL]	.	.
.	.	16gg'\J	.	.
8cJ 8A\	.	8ff'\J	.	.
*Xrep	*	*	*	*
!!LO:LB:g=original
=40	=40	=40	=40	=40
.	.	(8qaa/	.	.
*^	*	*	*	*
4C/	8C\L	.	16.gg\LL)	.	.
.	.	.	32ff#X\K	.	.
.	8cJ 8G 8E\	.	16.gg\	.	.
.	.	.	32aa\JJk	.	.
4C/	8C\L	.	8gg\L	.	.
.	8cJ 8G 8E\	.	8cccJ 8gg 8ee\	.	sf
*v	*v	*	*	*	*
=41	=41	=41	=41	=41
8F\L	.	16ddLL 16b-'\	.	.
.	.	16ddJ 16b-'\	.	.
8cJ 8A\	.	8ccJ 8a'\	.	.
.	.	(16qqff/LL	.	.
.	.	16qqgg/JJ	.	.
*rep	*	*	*	*
8F\L	.	8aa\L)	.	.
8cJ 8A\	.	8ccJ 8a'\	.	.
*Xrep	*	*	*	*
=42	=42	=42	=42	=42
8C\L	.	16ccLL 16a'/	.	.
.	.	16b-J 16g'/	.	.
8cJ 8B- 8G\	.	8gJ 8e'/	.	.
.	.	(16qqee/LL	.	.
.	.	16qqff/JJ	.	.
*rep	*	*	*	*
8C\L	.	8gg\L)	.	.
8cJ 8B- 8G\	.	8b-'\J	.	.
*Xrep	*	*	*	*
!!LO:LB:g=original
=43	=43	=43	=43	=43
*^	*	*	*	*
4rAyy	8F\L	.	16a'\LL	.	.
.	.	.	16dd'\J	.	.
.	8cJ 8A\	.	8cc'\J	.	.
4BBn/	8BBn\L	.	16dd'\LL	.	.
.	.	.	16ee'\J	.	.
.	8A-XJ 8F 8D\	.	8ff'\J	.	.
=44	=44	=44	=44	=44	=44
4C/	8C\L	.	(16dd\LL	.	.
.	.	.	16cc\	.	.
.	8B-J 8E\	.	16aa\	.	.
.	.	.	16gg\JJ)	.	.
4rcyy	8A 8F\	.	8ff\	.	.
!	!	!	!LO:TX:b:i:t=da capo Polka\nal fine	!	!
!	!	!	!LO:TX:t=P:problem:fermata nad kreską taktową	!	!
.	8r	.	8r	.	.
*v	*v	*	*	*	*
==:|!	==:|!	==:|!	==:|!	==:|!
*-	*-	*-	*-	*-
!!!system-decoration: {(p1)}
!!!RDF**kern: > = above
!!!RDF**kern: < = below
!!!ENC: Andrzej Kubiczek
!!!END: 2021-05-02
!!!ENC: Marcin Jachim
!!!END: 2021-04-09
